X:1
T:Title
%%score { ( 1 3 ) | ( 2 4 ) }
L:1/8
Q:1/4=100
M:4/4
K:Ab
V:1 treble nm="Grand Piano"
V:3 treble 
V:2 bass 
V:4 bass 
V:1
 [Ec]2 [CEA]2 [A,CE]2 [A,EA]2 | F2 A2 E2 A2 | c2 A2 E2 A2 | B2 B2 B2 _c2 | %4
 [Cc]2 [CEA]2 [A,CE]2 [A,EA]2 | F2 A2 E2 A2 | c2 e2 d2 [FB]2 | A2 G2 A4 | B2 A2 G2 B2 | %9
 [FA]2 [EG]2 [EG]2 [=DF]2 | [Ec]2 [A=d]2 [Ge]2 A2 | G2 [=DF]2 z2 _D2 | [Cc]2 [CA]2 [B,E]2 [CA]2 | %13
 [=DF]2 [_DA]2 [DE]2 A2 | c2 e2 d2 [DFB]2 | [CEA]2 [B,EG]2 [CEA]4 |] %16
V:2
 [A,,A,]2 A,,2 A,,2 C,2 | [D,A,D]2 [F,A,D]2 [A,C]4 | [A,E]2 [A,CE]2 [A,C]2 [A,CE]2 | %3
 [G,B,E]2 [F,A,=D]2 [E,G,_D]4 | [A,,A,]2 A,,2 A,,2 C,2 | [D,A,D]2 [F,A,D]2[K:treble] [A,C]4 | %6
 [A,E]2 [=A,C_G]2 [B,DF]2[K:bass] [D,D]2 | [E,CE]2 [E,B,E]2 [A,CE]4 | %8
 [G,B,E]2 [F,B,=D]2 [E,B,E]2 [G,B,E]2 | [=D,B,]2 [E,B,]2 [B,,B,]4 | %10
 [A,C]2 [F,B,]2 [E,B,]2[K:treble] [A,CF]2 | [B,E]2[K:bass] [B,,A,]2 [E,G,]4 | %12
 [A,,A,]2 [A,,A,]2 [A,,G,]2 [A,,_G,]2 | [A,,F,]2 [A,,=E,]2 z2[K:treble] C2 | %14
 [A,E]2 [=A,C_G]2 [B,DF]2[K:bass] D,2 | E,2 E,2 A,,4 |] %16
V:3
 x8 | x8 | x8 | x8 | x8 | x8 | x8 | x8 | x8 | x8 | x8 | z4 E4 | x8 | x8 | x8 | x8 |] %16
V:4
 x8 | x8 | x8 | x8 | x8 | x4[K:treble] x4 | x6[K:bass] x2 | x8 | x8 | x8 | x6[K:treble] x2 | %11
 x2[K:bass] x6 | x8 | z4 [A,,_E,]4[K:treble] | x6[K:bass] x2 | x8 |] %16

